svgs/openkeychain.svg

<svg viewBox="0 0 192 192" xml:space="preserve" style="fill-rule:evenodd;clip-rule:evenodd;stroke-linejoin:round;stroke-miterlimit:2" xmlns="http://www.w3.org/2000/svg"><path d="m951.286 541.407 12.013-.621a6 6 0 0 0 4.875-2.973l2.661-4.57 3.498 4.838a5.998 5.998 0 0 0 10.023-.455l2.449-4.13 3.267 4.88a6 6 0 0 0 4.986 2.662h5.422c1.59 0 3.12-.632 4.24-1.757l17.52-17.521a5.987 5.987 0 0 0 0-8.485l-17.76-17.765a6.005 6.005 0 0 0-4.24-1.757h-51.877c-8.351-12.092-22.305-20.02-38.096-20.02C884.731 473.733 864 494.465 864 520c0 25.535 20.731 46.267 46.267 46.267 17.813 0 33.289-10.089 41.019-24.86Zm-41.019-55.674c18.912 0 34.267 15.355 34.267 34.267 0 18.912-15.355 34.267-34.267 34.267C891.354 554.267 876 538.912 876 520c0-18.912 15.354-34.267 34.267-34.267Zm-12.991 18.131c-8.905 0-16.136 7.23-16.136 16.136 0 8.906 7.231 16.136 16.136 16.136 8.906 0 16.136-7.23 16.136-16.136 0-8.906-7.23-16.136-16.136-16.136Zm57.019 1.889A46.202 46.202 0 0 1 956.534 520c0 3.138-.314 6.204-.91 9.167l3.813-.197 5.669-9.738a6.002 6.002 0 0 1 10.048-.496l3.545 4.903 2.638-4.448a6 6 0 0 1 10.146-.278l6.671 9.965 11.356-11.361-11.76-11.764h-43.455Zm-57.019 10.111a4.138 4.138 0 0 1 4.136 4.136 4.138 4.138 0 0 1-4.136 4.136A4.138 4.138 0 0 1 893.14 520a4.138 4.138 0 0 1 4.136-4.136Z" style="fill-rule:evenodd;clip-rule:evenodd;stroke-linejoin:round;stroke-miterlimit:2" transform="translate(-848 -424)"/></svg>

<?xml version="1.0" encoding="UTF-8" standalone="no"?>
<svg
   width="100%"
   height="100%"
   viewBox="0 0 192 192"
   version="1.1"
   xml:space="preserve"
   style="fill-rule:evenodd;clip-rule:evenodd;stroke-linejoin:round;stroke-miterlimit:2;"
   id="svg2533"
   sodipodi:docname="openkeychain.svg"
   inkscape:version="1.2.1 (9c6d41e410, 2022-07-14)"
   xmlns:inkscape="http://www.inkscape.org/namespaces/inkscape"
   xmlns:sodipodi="http://sodipodi.sourceforge.net/DTD/sodipodi-0.dtd"
   xmlns="http://www.w3.org/2000/svg"
   xmlns:svg="http://www.w3.org/2000/svg"><defs
   id="defs2537" /><sodipodi:namedview
   id="namedview2535"
   pagecolor="#ffffff"
   bordercolor="#000000"
   borderopacity="0.25"
   inkscape:showpageshadow="2"
   inkscape:pageopacity="0.0"
   inkscape:pagecheckerboard="0"
   inkscape:deskcolor="#d1d1d1"
   showgrid="false"
   inkscape:zoom="5.3489583"
   inkscape:cx="95.906524"
   inkscape:cy="95.906524"
   inkscape:window-width="1274"
   inkscape:window-height="1303"
   inkscape:window-x="1282"
   inkscape:window-y="36"
   inkscape:window-maximized="0"
   inkscape:current-layer="svg2533" />
    <path
   d="M951.286,541.407L963.299,540.786C965.322,540.681 967.155,539.563 968.174,537.813L970.835,533.243C970.835,533.243 974.333,538.081 974.333,538.081C975.517,539.719 977.447,540.651 979.467,540.559C981.487,540.467 983.324,539.365 984.356,537.626L986.805,533.496C986.805,533.496 990.072,538.376 990.072,538.376C991.185,540.039 993.056,541.038 995.058,541.038L1000.48,541.038C1002.07,541.038 1003.6,540.406 1004.72,539.281L1022.24,521.76C1024.59,519.417 1024.59,515.618 1022.24,513.275L1004.48,495.51C1003.35,494.385 1001.83,493.753 1000.24,493.753L948.363,493.753C940.012,481.661 926.058,473.733 910.267,473.733C884.731,473.733 864,494.465 864,520C864,545.535 884.731,566.267 910.267,566.267C928.08,566.267 943.556,556.178 951.286,541.407ZM910.267,485.733C929.179,485.733 944.534,501.088 944.534,520C944.534,538.912 929.179,554.267 910.267,554.267C891.354,554.267 876,538.912 876,520C876,501.088 891.354,485.733 910.267,485.733ZM897.276,503.864C888.371,503.864 881.14,511.094 881.14,520C881.14,528.906 888.371,536.136 897.276,536.136C906.182,536.136 913.412,528.906 913.412,520C913.412,511.094 906.182,503.864 897.276,503.864ZM954.295,505.753C955.748,510.244 956.534,515.031 956.534,520C956.534,523.138 956.22,526.204 955.624,529.167L959.437,528.97L965.106,519.232C966.128,517.478 967.968,516.359 969.995,516.259C972.023,516.158 973.964,517.09 975.154,518.736C975.154,518.736 978.699,523.639 978.699,523.639L981.337,519.191C982.387,517.419 984.274,516.31 986.333,516.253C988.393,516.197 990.337,517.201 991.483,518.913L998.154,528.878L1009.51,517.517C1009.51,517.517 997.75,505.753 997.75,505.753L954.295,505.753ZM897.276,515.864C899.559,515.864 901.412,517.717 901.412,520C901.412,522.283 899.559,524.136 897.276,524.136C894.994,524.136 893.14,522.283 893.14,520C893.14,517.717 894.994,515.864 897.276,515.864Z"
   id="path2527"
   style="fill-rule:evenodd;clip-rule:evenodd;stroke-linejoin:round;stroke-miterlimit:2"
   transform="translate(-848,-424)"
   inkscape:label="openkeychain" />
</svg>
